flaticon/baby/game.svg

<svg xmlns="http://www.w3.org/2000/svg" width="32" height="32" viewBox="0 0 24 24">
    <path d="M 20.632812 0 L 3.367188 0 C 1.511719 0 0 1.511719 0 3.367188 L 0 20.632812 C 0 22.488281 1.511719 24 3.367188 24 L 20.632812 24 C 22.488281 24 24 22.488281 24 20.632812 L 24 3.367188 C 24 1.511719 22.488281 0 20.632812 0 Z M 23.144531 20.632812 C 23.144531 22.015625 22.015625 23.144531 20.632812 23.144531 L 3.367188 23.144531 C 1.984375 23.144531 0.855469 22.015625 0.855469 20.632812 L 0.855469 3.367188 C 0.855469 1.984375 1.984375 0.855469 3.367188 0.855469 L 20.632812 0.855469 C 22.015625 0.855469 23.144531 1.984375 23.144531 3.367188 Z M 23.144531 20.632812"/>
    <path d="M 20.632812 1.714844 L 3.367188 1.714844 C 2.457031 1.714844 1.714844 2.457031 1.714844 3.367188 L 1.714844 20.632812 C 1.714844 21.542969 2.457031 22.285156 3.367188 22.285156 L 20.632812 22.285156 C 21.542969 22.285156 22.285156 21.542969 22.285156 20.632812 L 22.285156 3.367188 C 22.285156 2.457031 21.542969 1.714844 20.632812 1.714844 Z M 21.429688 3.367188 L 21.429688 11.570312 L 12.429688 11.570312 L 12.429688 2.570312 L 20.632812 2.570312 C 21.070312 2.570312 21.429688 2.929688 21.429688 3.367188 Z M 3.367188 2.570312 L 11.570312 2.570312 L 11.570312 11.570312 L 2.570312 11.570312 L 2.570312 3.367188 C 2.570312 2.929688 2.929688 2.570312 3.367188 2.570312 Z M 2.570312 20.632812 L 2.570312 12.429688 L 11.570312 12.429688 L 11.570312 21.429688 L 3.367188 21.429688 C 2.929688 21.429688 2.570312 21.070312 2.570312 20.632812 Z M 20.632812 21.429688 L 12.429688 21.429688 L 12.429688 12.429688 L 21.429688 12.429688 L 21.429688 20.632812 C 21.429688 21.070312 21.070312 21.429688 20.632812 21.429688 Z M 20.632812 21.429688"/>
    <path d="M7.070312 10.714844C9.082031 10.714844 10.714844 9.082031 10.714844 7.070312 10.714844 5.0625 9.082031 3.429688 7.070312 3.429688 5.0625 3.429688 3.429688 5.0625 3.429688 7.070312 3.429688 9.082031 5.0625 10.714844 7.070312 10.714844zM7.070312 4.285156C8.609375 4.285156 9.855469 5.535156 9.855469 7.070312 9.855469 8.609375 8.609375 9.855469 7.070312 9.855469 5.535156 9.855469 4.285156 8.609375 4.285156 7.070312 4.285156 5.535156 5.535156 4.285156 7.070312 4.285156zM13.839844 7.160156L16.839844 10.160156C16.921875 10.242188 17.03125 10.285156 17.144531 10.285156 17.253906 10.285156 17.363281 10.242188 17.445312 10.160156L20.445312 7.160156C20.613281 6.992188 20.613281 6.722656 20.445312 6.554688L17.445312 3.554688C17.277344 3.386719 17.007812 3.386719 16.839844 3.554688L13.839844 6.554688C13.671875 6.722656 13.671875 6.992188 13.839844 7.160156zM17.144531 4.464844L19.535156 6.855469 17.144531 9.25 14.75 6.855469zM10.667969 19.523438L7.667969 13.523438C7.523438 13.230469 7.046875 13.230469 6.902344 13.523438L3.902344 19.523438C3.835938 19.65625 3.84375 19.8125 3.921875 19.941406 4 20.066406 4.136719 20.144531 4.285156 20.144531L10.285156 20.144531C10.433594 20.144531 10.570312 20.066406 10.652344 19.941406 10.726562 19.8125 10.734375 19.65625 10.667969 19.523438zM4.980469 19.285156L7.285156 14.671875 9.59375 19.285156zM20.640625 15.863281L18.511719 15.523438 17.527344 13.523438C17.382812 13.230469 16.902344 13.230469 16.757812 13.523438L15.773438 15.523438 13.644531 15.863281C13.488281 15.886719 13.355469 16 13.308594 16.152344 13.257812 16.304688 13.296875 16.472656 13.410156 16.589844L14.929688 18.117188 14.554688 20.3125C14.527344 20.472656 14.59375 20.636719 14.722656 20.730469 14.855469 20.828125 15.03125 20.839844 15.175781 20.761719L17.144531 19.726562 19.109375 20.761719C19.171875 20.796875 19.242188 20.8125 19.308594 20.8125 19.398438 20.8125 19.488281 20.785156 19.5625 20.730469 19.695312 20.632812 19.757812 20.472656 19.730469 20.3125L19.355469 18.117188 20.875 16.585938C20.988281 16.472656 21.027344 16.304688 20.980469 16.152344 20.929688 16 20.796875 15.886719 20.640625 15.863281zM18.59375 17.667969C18.496094 17.765625 18.449219 17.90625 18.472656 18.042969L18.742188 19.601562 17.34375 18.867188C17.28125 18.832031 17.210938 18.816406 17.144531 18.816406 17.074219 18.816406 17.003906 18.832031 16.945312 18.863281L15.546875 19.601562 15.8125 18.042969C15.835938 17.90625 15.792969 17.765625 15.695312 17.667969L14.609375 16.578125 16.128906 16.332031C16.265625 16.3125 16.382812 16.222656 16.445312 16.097656L17.144531 14.683594 17.84375 16.097656C17.902344 16.222656 18.019531 16.3125 18.160156 16.332031L19.679688 16.578125zM18.59375 17.667969"/>
</svg>

<svg xmlns="http://www.w3.org/2000/svg" width="32" height="32" viewBox="0 0 24 24">
    <path d="M20.633 0H3.367A3.373 3.373 0 0 0 0 3.367v17.266A3.373 3.373 0 0 0 3.367 24h17.266A3.373 3.373 0 0 0 24 20.633V3.367A3.373 3.373 0 0 0 20.633 0zm2.512 20.633a2.517 2.517 0 0 1-2.512 2.512H3.367a2.517 2.517 0 0 1-2.512-2.512V3.367A2.517 2.517 0 0 1 3.367.855h17.266a2.517 2.517 0 0 1 2.512 2.512zm0 0"/>
    <path d="M20.633 1.715H3.367c-.91 0-1.652.742-1.652 1.652v17.266c0 .91.742 1.652 1.652 1.652h17.266c.91 0 1.652-.742 1.652-1.652V3.367c0-.91-.742-1.652-1.652-1.652zm.797 1.652v8.203h-9v-9h8.203a.8.8 0 0 1 .797.797zM3.367 2.57h8.203v9h-9V3.367a.8.8 0 0 1 .797-.797zM2.57 20.633V12.43h9v9H3.367a.8.8 0 0 1-.797-.797zm18.063.797H12.43v-9h9v8.203a.8.8 0 0 1-.797.797zm0 0"/>
    <path d="M7.07 10.715a3.646 3.646 0 0 0 3.645-3.645A3.645 3.645 0 0 0 7.07 3.43a3.644 3.644 0 0 0-3.64 3.64 3.645 3.645 0 0 0 3.64 3.645zm0-6.43a2.784 2.784 0 1 1 .002 5.573 2.784 2.784 0 0 1-.002-5.573zm0 0M13.84 7.16l3 3a.428.428 0 0 0 .605 0l3-3a.427.427 0 0 0 0-.605l-3-3a.427.427 0 0 0-.605 0l-3 3a.427.427 0 0 0 0 .605zm3.305-2.695l2.39 2.39-2.39 2.395-2.395-2.395zm0 0M10.668 19.523l-3-6c-.145-.293-.621-.293-.766 0l-3 6a.43.43 0 0 0 .383.622h6a.441.441 0 0 0 .367-.204.44.44 0 0 0 .016-.418zm-5.688-.238l2.305-4.613 2.309 4.613zm0 0M20.64 15.863l-2.128-.34-.985-2c-.144-.293-.625-.293-.77 0l-.984 2-2.128.34a.432.432 0 0 0-.234.727l1.519 1.527-.375 2.195a.43.43 0 0 0 .168.418c.132.098.308.11.453.032l1.969-1.035 1.964 1.035a.428.428 0 0 0 .621-.45l-.375-2.195 1.52-1.531a.434.434 0 0 0 .105-.434.43.43 0 0 0-.34-.289zm-2.046 1.805a.43.43 0 0 0-.121.375l.27 1.559-1.4-.735a.428.428 0 0 0-.398-.004l-1.398.739.265-1.559a.428.428 0 0 0-.117-.375l-1.086-1.09 1.52-.246a.425.425 0 0 0 .316-.234l.7-1.414.699 1.414a.412.412 0 0 0 .316.234l1.52.246zm0 0"/>
</svg>
